X: 1
T: Dark Horse, The
M: 4/4
L: 1/8
R: reel
K: Bdor
fBBf fede|fBB_g fedc|Bee/e/e gee/e/e|Bege agfe|
fBBf fede|fBB_g fedc|Bee/e/e gee/e/e|Begf edcB|
A/A/AAf ecBA|GABG EFGB|A/A/AfA eAce|fedc BdcB|
A/A/AAf ecBA|GBdB GBcB|ABcd eAce|fgaf eAce||
